X:1
T:Heaven’s Harbor
T:Heaven’s Harbor
T:Edwin Othello Excell
T:A. V. Wark, 1895
T:Public Domain Courtesy of the Cyber Hymnal™
T:Public Domain Courtesy of the Cyber Hymnal™
C:Edwin Othello Excell
Z:Public Domain
Z:Courtesy of the Cyber Hymnal™
%%score ( 1 2 ) ( 3 4 )
L:1/8
Q:1/4=98
M:4/4
K:F
V:1 treble 
V:2 treble 
V:3 bass 
V:4 bass 
V:1
 [CA] | [CA]2 [A,F]2 [CA]3 [CA] | [CA]2 [DB]2 [CA]3 [CA] | [CA][B,G][A,F][DB] [CA]2 [B,G]2 | %4
w: 1.~In|youth’s glad hour, when|all is light, There|seems no cloud, there seems no|
w: 2.~In|man- hood’s prime when|cares of life Bear|on our bark with cease- less|
w: 3.~The|years speed on, our|bark grows old, The|bil- lows would its form en-|
 [A,F]6 z [CA] | [CA]2 [A,F]2 [B,G]3 [DB] | [CA]2 [A,F]2 [B,G]3 [CA] | %7
w: night; Our|bark of life doth|smooth- ly glide, So|
w: strife, Tossed|to and fro, no|star to guide, Our|
w: fold; ’Neath|load of sin ’tis|sink- ing fast, A|
 [Ec][DB][CA][DB] [CA]2 [B,G]2 | [A,F]6 z [EG] | G6 [FG]2 | [EG]3 [EG] [EG]2 [EG]2 | G6 [FG]2 | %12
w: soft- ly flows the peace- ful|tide. Hark,|hark, a|voice comes o’er the|sea, In|
w: bark is drift- ing with the|tide. Hark,|hark, that|voice a- gain I|hear, A-|
w: wreck up- on the shore be|cast. Hark,|hark, that|voice once more I|hear, “O|
 [EG]2 [EA]2 !fermata![E_B]2 z [CA] | [CA]2 [A,F]2 [B,G]3 [DB] | [CA]2 [A,F]2 [B,G]3 [CA] | %15
w: lov- ing tones it|speaks to thee; It|tells of rocks and|
w: bove the storm rings|sweet and clear, “O|soul, fear not,” I|
w: come to Me, you|need not fear; Trust|not to self, leave|
 [Ec][DB][CA][DB] [CA]2 [B,G]2 | [A,F]6 z ||"^Refrain" [Fc] | [Ec]2 [EG]2 [FA]2 [GB]2 | %19
w: dan- gerous shoals, And speaks of|wrecked|and|ru- ined souls. *|
w: hear it say; “Trust thou in|Me,|I|am the Way.” Cast|
w: all to Me, I’ll guide thy|bark|thro’|life’s rough sea.” *|
 [Bd]3 [Ac] [Ac]2 [FA]2 | [GB]2 [FA]2 [EG]2 [GB]2 | [GB]3 [FA] [FA]2 [Fc]2 | %22
w: |||
w: an- chor ere it|be too late; The|e- cho comes from|
w: |||
 [Fd]2 [Fd]2 [F_e]2 [Fe]2 | [F_e]3 [Fd] [Fd]2 [Ff]2 | [Af][Fc][FA][CF] [CF][DG][CA][CA] | %25
w: |||
w: Hea- ven’s gate, “O|soul, de- lay not,|heed the call, Christ is the har- bor|
w: |||
 !fermata![FA]2 [CG]2 [CF]3 z |] %26
w: |
w: safe for all,|
w: |
V:2
 x | x8 | x8 | x8 | x8 | x8 | x8 | x8 | x8 | F3 E D2 x2 | x8 | F3 E D2 x2 | x8 | x8 | x8 | x8 | %16
 x7 || x | x8 | x8 | x8 | x8 | x8 | x8 | x8 | x8 |] %26
V:3
 C | C2 A,2 C3 [C,C] | C2 D2 C3 [C,C] | [C,,C][C,B,][C,A,][C,D] C2 B,2 | A,6 z C | %5
 C2 A,2 B,3 [C,D] | C2 A,2 B,3 [C,C] | [C,,E][C,D][C,C][C,D] C2 B,2 | A,6 z [C,C] | %9
 D3 C =B,2 [G,A,]2 | [C,G,]3 [C,C] [C,G,]2 [C,C]2 | D3 C =B,2 [G,A,]2 | %12
 [C,G,]2 [C,C]2 !fermata![C,C]2 z C | C2 A,2 B,3 [C,D] | C2 A,2 B,3 [C,C] | %15
 [C,,E][C,D][C,C][C,D] C2 B,2 | A,6 z || [F,A,] | [C,G,]2 [C,C]2 [C,C]2 [C,C]2 | %19
 [F,C]3 [F,C] [F,C]2 [F,C]2 | [C,C]2 [C,C]2 [C,C]2 [C,C]2 | [F,C]3 [F,C] [F,C]2 [F,A,]2 | %22
 [F,B,]2 [F,B,]2 [F,C]2 [A,C]2 | [A,C]3 B, B,2 [B,D]2 | %24
 [F,C][F,A,][C,F,][A,,F,] [A,,F,][B,,F,][C,F,][C,F,] | !fermata![C,C]2 B,2 [F,A,]3 z |] %26
V:4
 x | (F,,C,) (F,C,) (F,,C,F,) x | (F,,C,) (F,C,) (F,,C,F,) x | x4 (C,,C,) (C,,C,) | %4
 (F,,C,F,C, F,,2) x2 | (F,,C,) (F,C,) (F,,C,F,) x | (F,,C,) (F,C,) (F,,C,F,) x | %7
 x4 (C,,C,) (C,,C,) | (F,,C,F,C, F,,2) x2 | G,6 x2 | x8 | G,6 x2 | x8 | %13
 (F,,C,) (F,C,) (F,,C,F,) x | (F,,C,) (F,C,) F,,C,F, x | x4 (C,,C,) (C,,C,) | (F,,C,F,C, F,,2) x || %17
 x | x8 | x8 | x8 | x8 | x8 | x3 B, B,2 x2 | x8 | x8 |] %26

